static/images/skills/grpc.svg

<svg xmlns="http://www.w3.org/2000/svg" xml:space="preserve" style="fill-rule:evenodd;clip-rule:evenodd;stroke-linejoin:round;stroke-miterlimit:2" viewBox="0 0 1200 900"><path d="M0 0h1200v900H0z" style="fill:#054340"/><path d="m33.092 41.594-5.184 5.222L33.131 52l5.183-5.223z" style="fill:url(#a);fill-rule:nonzero" transform="translate(300 150.002)scale(4.6875)"/><path d="M8.838 38.03 0 46.935l8.937 8.838 8.804-8.904z" style="fill:url(#b);fill-rule:nonzero" transform="translate(300 150.002)scale(4.6875)"/><path d="m13.788 41.52-4.56.018-5.352 5.392 5.391 5.352 4.561-.017-4.782-4.745 23.619-.088-2.07 2.084 2.28-.008 2.676-2.696-2.696-2.676-2.28.009 2.085 2.069-23.619.087zm101.703 2.324q-3.772 0-6.996 1.338-3.223 1.336-5.586 3.7t-3.7 5.61-1.337 7.114q-.001 3.869 1.336 7.116t3.701 5.61q2.363 2.364 5.586 3.7t6.996 1.337a16.26 16.26 0 0 0 7.496-1.79 13.4 13.4 0 0 0 2.889-1.982A13 13 0 0 0 128 73.162l-2.817-2.005q-.956 1.48-2.076 2.459a9.8 9.8 0 0 1-2.388 1.552q-1.266.573-2.578.811c-.874.159-1.761.239-2.65.239q-3.248 0-5.826-1.194-2.579-1.193-4.369-3.2-1.79-2.004-2.746-4.654a16.3 16.3 0 0 1-.954-5.564q0-2.911.954-5.562.956-2.65 2.746-4.656t4.369-3.199 5.826-1.193q1.335 0 2.674.382 1.335.383 2.506 1.003t2.077 1.432q.907.812 1.433 1.623l3.007-2.244q-2.244-2.864-5.395-4.107-3.15-1.24-6.302-1.24zm-71.527.86V78.51h3.438V62.8h5.73l9.263 15.71h4.202l-9.741-16.044q4.201-.382 6.423-2.793 2.22-2.41 2.22-5.944 0-4.536-2.984-6.781t-8.142-2.244zm28.553 0V78.51h3.439V62.8h6.398q5.156 0 8.14-2.268t2.984-6.803q0-4.536-2.983-6.781-2.985-2.244-8.141-2.244zm-25.115 3.152h6.112q2.291 0 3.891.452 1.6.455 2.555 1.266.955.813 1.384 1.886.43 1.075.43 2.269 0 1.241-.43 2.315a4.6 4.6 0 0 1-1.384 1.862q-.956.788-2.555 1.266-1.6.477-3.891.477h-6.112zm28.554 0h5.538q2.291 0 3.891.452 1.6.455 2.555 1.266.954.813 1.385 1.886c.288.722.434 1.492.43 2.269q0 1.241-.43 2.315a4.63 4.63 0 0 1-1.385 1.862q-.956.788-2.555 1.266-1.6.477-3.891.477h-5.538zM22.669 55.59q-2.483 0-4.56.884a10.65 10.65 0 0 0-3.581 2.46 11.7 11.7 0 0 0-2.364 3.675q-.86 2.101-.86 4.537t.908 4.536a10.9 10.9 0 0 0 2.482 3.605 11.6 11.6 0 0 0 3.701 2.363q2.125.86 4.56.86a11.5 11.5 0 0 0 4.632-.955q2.196-.955 3.724-3.247h.095v4.011q0 1.814-.452 3.414a7.3 7.3 0 0 1-1.481 2.793q-1.027 1.193-2.698 1.887-1.672.69-4.059.69-2.721 0-4.942-1.12-2.22-1.122-3.605-2.985l-2.34 2.483q2.15 2.291 4.776 3.39 2.625 1.098 5.968 1.098 3.771 0 6.112-1.145 2.34-1.147 3.653-2.865a9.55 9.55 0 0 0 1.766-3.772q.454-2.054.454-3.868V56.163h-3.152v3.725h-.095q-.955-1.29-2.053-2.125a10.054 10.054 0 0 0-4.465-1.982 12.7 12.7 0 0 0-2.124-.19zm.382 2.865q1.958 0 3.533.693 1.576.692 2.674 1.862a8 8 0 0 1 1.672 2.721 9.5 9.5 0 0 1 .573 3.32q.046 1.957-.598 3.532a7.6 7.6 0 0 1-1.838 2.699 8.7 8.7 0 0 1-2.745 1.742 8.7 8.7 0 0 1-3.271.62q-1.768 0-3.271-.69a8.5 8.5 0 0 1-2.626-1.863 8.7 8.7 0 0 1-1.767-2.722 8.55 8.55 0 0 1-.645-3.319q0-1.766.645-3.319a8.7 8.7 0 0 1 1.767-2.72 8.6 8.6 0 0 1 2.626-1.863q1.504-.692 3.27-.693z" style="fill:#fff;fill-rule:nonzero" transform="translate(300 150.002)scale(4.6875)"/><defs><linearGradient id="a" x1="0" x2="1" y1="0" y2="0" gradientTransform="rotate(-2.692 1120.394 -567.845)scale(10.4174)" gradientUnits="userSpaceOnUse"><stop offset="0" style="stop-color:#00b5b2;stop-opacity:1"/><stop offset=".13" style="stop-color:#00b9b6;stop-opacity:1"/><stop offset=".28" style="stop-color:#1cbcba;stop-opacity:1"/><stop offset=".49" style="stop-color:#44c1bf;stop-opacity:1"/><stop offset=".65" style="stop-color:#57c4c3;stop-opacity:1"/><stop offset=".79" style="stop-color:#63c7c6;stop-opacity:1"/><stop offset=".9" style="stop-color:#6cc9c8;stop-opacity:1"/><stop offset="1" style="stop-color:#72cbca;stop-opacity:1"/></linearGradient><linearGradient id="b" x1="0" x2="1" y1="0" y2="0" gradientTransform="rotate(5.87 -457.764 23.468)scale(17.8346)" gradientUnits="userSpaceOnUse"><stop offset="0" style="stop-color:#71caca;stop-opacity:1"/><stop offset=".12" style="stop-color:#66c7c7;stop-opacity:1"/><stop offset=".24" style="stop-color:#57c4c3;stop-opacity:1"/><stop offset=".4" style="stop-color:#34bebd;stop-opacity:1"/><stop offset=".52" style="stop-color:#00bab7;stop-opacity:1"/><stop offset=".59" style="stop-color:#00b6b3;stop-opacity:1"/><stop offset=".68" style="stop-color:#00b2ae;stop-opacity:1"/><stop offset="1" style="stop-color:#00b0ad;stop-opacity:1"/></linearGradient></defs></svg>

<?xml version="1.0" encoding="UTF-8" standalone="no"?>
<!DOCTYPE svg PUBLIC "-//W3C//DTD SVG 1.1//EN" "http://www.w3.org/Graphics/SVG/1.1/DTD/svg11.dtd">
<svg width="100%" height="100%" viewBox="0 0 1200 900" version="1.1" xmlns="http://www.w3.org/2000/svg" xmlns:xlink="http://www.w3.org/1999/xlink" xml:space="preserve" xmlns:serif="http://www.serif.com/" style="fill-rule:evenodd;clip-rule:evenodd;stroke-linejoin:round;stroke-miterlimit:2;">
    <rect x="0" y="0" width="1200" height="900" style="fill:rgb(5,67,64);"/>
    <g transform="matrix(4.96783,0,0,4.96783,282.056,132.059)">
        <g transform="matrix(0.94357,0,0,0.94357,3.612,3.61187)">
            <path d="M33.092,41.594L27.908,46.816L33.131,52L38.314,46.777L33.092,41.594Z" style="fill:url(#_Linear1);fill-rule:nonzero;"/>
        </g>
        <g transform="matrix(0.94357,0,0,0.94357,3.612,3.61187)">
            <path d="M8.838,38.03L0,46.935L8.937,55.773L17.741,46.869L8.838,38.03Z" style="fill:url(#_Linear2);fill-rule:nonzero;"/>
        </g>
        <g transform="matrix(0.94357,0,0,0.94357,3.612,3.61187)">
            <path d="M13.788,41.52L9.228,41.538L3.876,46.93L9.267,52.282L13.828,52.265L9.046,47.52L32.665,47.432L30.595,49.516L32.875,49.508L35.551,46.812L32.855,44.136L30.575,44.145L32.66,46.214L9.041,46.301L13.788,41.52ZM115.491,43.844C112.976,43.844 110.644,44.291 108.495,45.182C106.346,46.073 104.485,47.306 102.909,48.882C101.333,50.457 100.099,52.328 99.209,54.492C98.316,56.657 97.872,59.028 97.872,61.606C97.872,64.185 98.316,66.557 99.208,68.722C100.098,70.886 101.333,72.756 102.909,74.332C104.485,75.908 106.346,77.142 108.495,78.032C110.644,78.922 112.975,79.369 115.491,79.369C116.891,79.369 118.219,79.209 119.477,78.892C120.693,78.589 121.871,78.149 122.987,77.579C124.032,77.047 125.004,76.381 125.876,75.597C126.682,74.876 127.395,74.058 128,73.162L125.183,71.157C124.546,72.144 123.854,72.964 123.107,73.616C122.391,74.247 121.587,74.77 120.719,75.168C119.875,75.55 119.016,75.82 118.141,75.979C117.267,76.138 116.38,76.218 115.491,76.218C113.326,76.218 111.384,75.821 109.665,75.024C107.945,74.229 106.49,73.162 105.296,71.824C104.103,70.488 103.186,68.937 102.55,67.17C101.91,65.385 101.588,63.502 101.596,61.606C101.596,59.666 101.914,57.81 102.55,56.044C103.187,54.277 104.103,52.725 105.296,51.388C106.49,50.051 107.946,48.985 109.665,48.189C111.384,47.394 113.325,46.996 115.491,46.996C116.381,46.996 117.273,47.123 118.165,47.378C119.055,47.633 119.891,47.968 120.671,48.381C121.451,48.795 122.143,49.272 122.748,49.813C123.353,50.355 123.83,50.895 124.181,51.436L127.188,49.192C125.692,47.282 123.894,45.914 121.793,45.085C119.693,44.258 117.592,43.845 115.491,43.845L115.491,43.844ZM43.964,44.704L43.964,78.51L47.402,78.51L47.402,62.8L53.132,62.8L62.395,78.51L66.597,78.51L56.856,62.466C59.656,62.212 61.799,61.28 63.279,59.673C64.759,58.066 65.499,56.085 65.499,53.729C65.499,50.705 64.504,48.445 62.515,46.948C60.525,45.452 57.811,44.704 54.373,44.704L43.964,44.704ZM72.517,44.704L72.517,78.51L75.956,78.51L75.956,62.8L82.354,62.8C85.791,62.8 88.505,62.044 90.494,60.532C92.484,59.021 93.478,56.753 93.478,53.729C93.478,50.705 92.484,48.445 90.495,46.948C88.505,45.452 85.791,44.704 82.354,44.704L72.517,44.704ZM47.402,47.856L53.514,47.856C55.042,47.856 56.338,48.006 57.405,48.308C58.471,48.611 59.323,49.033 59.96,49.574C60.596,50.116 61.058,50.744 61.344,51.46C61.631,52.176 61.774,52.933 61.774,53.729C61.774,54.557 61.631,55.328 61.344,56.044C61.049,56.772 60.572,57.413 59.96,57.906C59.323,58.431 58.471,58.854 57.405,59.172C56.338,59.49 55.042,59.649 53.514,59.649L47.402,59.649L47.402,47.856ZM75.956,47.856L81.494,47.856C83.022,47.856 84.318,48.006 85.385,48.308C86.451,48.611 87.303,49.033 87.94,49.574C88.576,50.116 89.038,50.744 89.325,51.46C89.613,52.182 89.759,52.952 89.755,53.729C89.755,54.557 89.611,55.328 89.325,56.044C89.029,56.772 88.552,57.413 87.94,57.906C87.303,58.431 86.451,58.854 85.385,59.172C84.318,59.49 83.022,59.649 81.494,59.649L75.956,59.649L75.956,47.856ZM22.669,55.59C21.014,55.59 19.493,55.885 18.109,56.474C16.759,57.039 15.54,57.877 14.528,58.934C13.515,59.999 12.713,61.246 12.164,62.609C11.591,64.01 11.304,65.522 11.304,67.146C11.304,68.769 11.607,70.282 12.212,71.682C12.786,73.039 13.631,74.266 14.694,75.287C15.766,76.303 17.022,77.105 18.395,77.65C19.811,78.223 21.332,78.51 22.955,78.51C24.548,78.516 26.126,78.191 27.587,77.555C29.051,76.919 30.292,75.835 31.311,74.308L31.406,74.308L31.406,78.319C31.406,79.529 31.256,80.666 30.954,81.733C30.671,82.761 30.165,83.715 29.473,84.526C28.788,85.321 27.889,85.951 26.775,86.413C25.66,86.873 24.308,87.103 22.716,87.103C20.902,87.103 19.254,86.73 17.774,85.983C16.294,85.235 15.092,84.24 14.169,82.998L11.829,85.481C13.262,87.009 14.854,88.138 16.605,88.871C18.355,89.603 20.345,89.969 22.573,89.969C25.087,89.969 27.125,89.588 28.685,88.824C30.245,88.06 31.462,87.104 32.338,85.959C33.197,84.847 33.8,83.559 34.104,82.187C34.407,80.817 34.558,79.529 34.558,78.319L34.558,56.163L31.406,56.163L31.406,59.888L31.311,59.888C30.674,59.028 29.991,58.32 29.258,57.763C28.575,57.235 27.829,56.794 27.038,56.45C26.318,56.14 25.565,55.916 24.793,55.781C24.092,55.658 23.381,55.595 22.669,55.591L22.669,55.59ZM23.051,58.455C24.356,58.455 25.534,58.687 26.584,59.148C27.634,59.609 28.526,60.23 29.258,61.01C29.993,61.795 30.562,62.72 30.93,63.731C31.317,64.795 31.511,65.919 31.503,67.051C31.533,68.356 31.335,69.533 30.905,70.583C30.495,71.605 29.868,72.526 29.067,73.282C28.27,74.031 27.339,74.622 26.322,75.024C25.282,75.439 24.171,75.649 23.051,75.644C21.873,75.644 20.782,75.414 19.78,74.954C18.795,74.505 17.903,73.873 17.154,73.091C16.4,72.302 15.8,71.379 15.387,70.369C14.953,69.317 14.734,68.188 14.742,67.05C14.742,65.873 14.958,64.766 15.387,63.731C15.801,62.722 16.4,61.799 17.154,61.011C17.904,60.23 18.795,59.597 19.78,59.148C20.782,58.687 21.873,58.455 23.05,58.455L23.051,58.455Z" style="fill:white;fill-rule:nonzero;"/>
        </g>
    </g>
    <defs>
        <linearGradient id="_Linear1" x1="0" y1="0" x2="1" y2="0" gradientUnits="userSpaceOnUse" gradientTransform="matrix(10.4059,-0.489314,0.489314,10.4059,27.9088,51.9991)"><stop offset="0" style="stop-color:rgb(0,181,178);stop-opacity:1"/><stop offset="0.13" style="stop-color:rgb(0,185,182);stop-opacity:1"/><stop offset="0.28" style="stop-color:rgb(28,188,186);stop-opacity:1"/><stop offset="0.49" style="stop-color:rgb(68,193,191);stop-opacity:1"/><stop offset="0.65" style="stop-color:rgb(87,196,195);stop-opacity:1"/><stop offset="0.79" style="stop-color:rgb(99,199,198);stop-opacity:1"/><stop offset="0.9" style="stop-color:rgb(108,201,200);stop-opacity:1"/><stop offset="1" style="stop-color:rgb(114,203,202);stop-opacity:1"/></linearGradient>
        <linearGradient id="_Linear2" x1="0" y1="0" x2="1" y2="0" gradientUnits="userSpaceOnUse" gradientTransform="matrix(17.7411,1.82377,-1.82377,17.7411,8.92e-05,46.9341)"><stop offset="0" style="stop-color:rgb(113,202,202);stop-opacity:1"/><stop offset="0.12" style="stop-color:rgb(102,199,199);stop-opacity:1"/><stop offset="0.24" style="stop-color:rgb(87,196,195);stop-opacity:1"/><stop offset="0.4" style="stop-color:rgb(52,190,189);stop-opacity:1"/><stop offset="0.52" style="stop-color:rgb(0,186,183);stop-opacity:1"/><stop offset="0.59" style="stop-color:rgb(0,182,179);stop-opacity:1"/><stop offset="0.68" style="stop-color:rgb(0,178,174);stop-opacity:1"/><stop offset="1" style="stop-color:rgb(0,176,173);stop-opacity:1"/></linearGradient>
    </defs>
</svg>
